X: 32668
T: Point Road, The
R: jig
M: 6/8
K: Dmajor
eAA gfe|eAA gfe|fddg2b|afd g2f|
eAA eAA|gAg gab|afd gfe|ffd g2f||
eAA eAA|gAg ggg|afd g2b|afd g2f|
eAA eAA|gAg ggg|afd gfe|ffd d2B||
A2d dcd|f/g/af geB|caa ^ga=g|afg ecA|
Bff cfd|fge fdB|caa ^gaf|gec d2 A||
Bff cfd|fge fdB|A2 c BdB|caf gec|
A2d dcd|f/g/af geB|caa ^gaf|gec d3||

